svgs/olx.svg

<?xml version="1.0" encoding="UTF-8" standalone="no"?>
<svg
   viewBox="0 0 192 192"
   id="vector"
   version="1.1"
   sodipodi:docname="olx.svg"
   inkscape:version="1.2.2 (732a01da63, 2022-12-09)"
   xmlns:inkscape="http://www.inkscape.org/namespaces/inkscape"
   xmlns:sodipodi="http://sodipodi.sourceforge.net/DTD/sodipodi-0.dtd"
   xmlns="http://www.w3.org/2000/svg"
   xmlns:svg="http://www.w3.org/2000/svg">
  <defs
     id="defs8" />
  <sodipodi:namedview
     id="namedview6"
     pagecolor="#ffffff"
     bordercolor="#666666"
     borderopacity="1.0"
     inkscape:showpageshadow="2"
     inkscape:pageopacity="0.0"
     inkscape:pagecheckerboard="0"
     inkscape:deskcolor="#d1d1d1"
     showgrid="false"
     inkscape:zoom="1.2291667"
     inkscape:cx="71.999998"
     inkscape:cy="95.999997"
     inkscape:current-layer="vector" />
  <path
     id="path"
     d="M 114.99876,142 H 94.062542 V 50.000002 H 114.99876 Z M 171.9456,73.000309 h -13.91429 l -8.16818,8.491665 -8.17016,-8.492893 H 127.7757 v 14.719214 l 8.06039,8.378702 -8.06039,8.379933 v 14.52277 h 14.13287 l 7.97928,-8.29522 7.97731,8.29522 H 172 V 104.47694 L 163.93962,96.098226 172,87.719523 V 73.000309 h -0.0554 z"
     fill="none"
     stroke="#000000"
     stroke-width="12"
     style="stroke-width:8.00004;stroke-linecap:round;stroke-linejoin:round;stroke-dasharray:none" />
  <path
     id="path_1"
     d="m 50.92615,65.129311 c -8.198842,0 -16.070323,3.254974 -21.867864,9.041733 C 23.260746,79.958416 20,87.815907 20,96.000003 c 0,8.184097 3.260746,16.041587 9.058286,21.828957 5.797541,5.78676 13.669022,9.04174 21.867864,9.04174 8.198842,0 16.070323,-3.25498 21.867864,-9.04174 5.797541,-5.78737 9.057297,-13.64486 9.057297,-21.828956 0,-8.184096 -3.259756,-16.041588 -9.057297,-21.82896 C 66.996473,68.384285 59.124992,65.129311 50.92615,65.129311 Z"
     fill="none"
     stroke="#000000"
     stroke-width="12"
     style="stroke-width:8.00004;stroke-linecap:round;stroke-linejoin:round;stroke-dasharray:none" />
  <path
     id="path_2"
     d="m 50.92615,85.709567 c -2.733607,0 -5.357434,1.0854 -7.289947,3.01432 -1.932514,1.928919 -3.019429,4.547881 -3.019429,7.276116 0,2.728239 1.086915,5.347197 3.019429,7.276117 1.932513,1.92892 4.55634,3.01432 7.289947,3.01432 2.732618,0 5.356445,-1.0854 7.288958,-3.01432 1.932514,-1.92892 3.019429,-4.547878 3.019429,-7.276117 0,-2.728235 -1.086915,-5.347197 -3.019429,-7.276116 -1.932513,-1.92892 -4.55634,-3.01432 -7.288958,-3.01432 z"
     fill="none"
     stroke="#000000"
     stroke-width="12"
     style="stroke-width:8.00004;stroke-linecap:round;stroke-linejoin:round;stroke-dasharray:none" />
</svg>

<svg width="192" height="192" fill="none" xmlns="http://www.w3.org/2000/svg"><path d="M114.999 142H94.063V50h20.936v92Zm56.947-69h-13.915l-8.168 8.492-8.17-8.493h-13.917v14.72l8.06 8.378-8.06 8.38V119h14.133l7.979-8.296 7.977 8.296H172v-14.523l-8.06-8.379L172 87.72V73h-.055.001ZM50.926 65.13a30.967 30.967 0 0 0-21.868 9.041A30.855 30.855 0 0 0 20 96c0 8.184 3.26 16.042 9.058 21.829a30.966 30.966 0 0 0 43.736 0A30.853 30.853 0 0 0 81.851 96c0-8.184-3.26-16.042-9.057-21.829a30.967 30.967 0 0 0-21.868-9.042Z" stroke="#000" stroke-width="8" stroke-linecap="round" stroke-linejoin="round"/><path d="M50.926 85.71a10.323 10.323 0 0 0-7.29 3.014A10.284 10.284 0 0 0 40.616 96c0 2.728 1.088 5.347 3.02 7.276a10.322 10.322 0 0 0 14.579 0A10.284 10.284 0 0 0 61.235 96c0-2.728-1.087-5.347-3.02-7.276a10.322 10.322 0 0 0-7.289-3.014Z" stroke="#000" stroke-width="8" stroke-linecap="round" stroke-linejoin="round"/></svg>
